packages/app/src/images/tenderMATIC.svg

<svg width="67" height="70" xmlns="http://www.w3.org/2000/svg" fill="none">

 <mask fill="black" height="22.6274" width="22.6274" y="47.2737" x="30.845" maskUnits="userSpaceOnUse" id="path-5-outside-1">
  <rect id="svg_1" height="22.6274" width="22.6274" y="47.2737" x="30.845" fill="white"/>
  <path id="svg_2" d="m44.2801,51.5164c0.781,-0.7811 2.0473,-0.7811 2.8284,0l1.5506,1.5507c0.7811,0.781 0.7811,2.0473 0,2.8284l-8.8642,8.8642c-0.7811,0.7811 -2.0474,0.7811 -2.8284,0l-1.5507,-1.5506c-0.7811,-0.7811 -0.7811,-2.0474 0,-2.8285l8.8643,-8.8642zm1.3415,4.4066c-0.3405,0.3405 -0.8926,0.3405 -1.2331,0c-0.3405,-0.3405 -0.3405,-0.8925 0,-1.2331c0.3405,-0.3405 0.8926,-0.3405 1.2331,0c0.3405,0.3406 0.3405,0.8926 0,1.2331zm-3.6899,2.4568c0.3406,0.3405 0.8926,0.3405 1.2331,0c0.3406,-0.3405 0.3406,-0.8926 0,-1.2331c-0.3405,-0.3405 -0.8925,-0.3405 -1.2331,0c-0.3405,0.3405 -0.3405,0.8926 0,1.2331z" clip-rule="evenodd" fill-rule="evenodd"/>
 </mask>
 <g>
  <title>Layer 1</title>
  <circle id="svg_3" fill="#161617" r="30" cy="31" cx="31"/>
  <path id="svg_6" stroke-linejoin="round" stroke-linecap="round" stroke-width="2" stroke="white" fill="#2F3350" d="m45.7444,51.24c-0.3905,0.3905 -0.3905,1.0237 0,1.4142l1.7769,1.777c0.3905,0.3905 1.0237,0.3905 1.4142,0l0.5439,-0.5439l6.7038,-6.7038l0.3475,0.9162c0.1003,0.2645 0.2557,0.5048 0.4558,0.7049l0.596,0.596c0.2225,0.2225 0.5369,0.3273 0.8485,0.2828l1.4276,-0.2039c0.4926,-0.0704 0.8586,-0.4923 0.8586,-0.99l0,-0.2236l0.2236,0c0.2652,0 0.5196,-0.1054 0.7071,-0.2929c0.1876,-0.1876 0.2929,-0.4419 0.2929,-0.7071l0,-0.2237l0.2237,0c0.2652,0 0.5195,-0.1053 0.7071,-0.2929c0.1875,-0.1875 0.2929,-0.4419 0.2929,-0.7071l0,-0.2236l0.2236,0c0.2652,0 0.5196,-0.1054 0.7071,-0.2929c0.1876,-0.1876 0.2929,-0.4419 0.2929,-0.7071l0,-0.8095l-1,0l1,0c0,-0.5304 -0.2107,-1.0391 -0.5858,-1.4142l-0.157,-0.157c-0.3823,-0.3823 -0.8799,-0.5734 -1.3639,-0.6029c-0.3718,-0.0227 -0.9607,-0.0854 -1.5591,-0.2516c-0.6122,-0.1701 -1.1393,-0.4225 -1.4791,-0.7624c-1.0318,-1.0317 -1.0857,-2.4948 -1.0857,-3.4283c0,-0.2653 -0.1053,-0.5196 -0.2928,-0.7071l-0.6893,-0.6893c-0.1098,-0.1098 -0.2436,-0.1925 -0.3909,-0.2416l-1.0338,-0.3446c-0.305,-0.1016 -0.6402,-0.0505 -0.901,0.1374c-0.2608,0.188 -0.4153,0.4898 -0.4153,0.8113l0,0.3785l-0.3785,0c-0.5523,0 -1,0.4477 -1,1l0,0.3785l-0.3785,0c-0.5523,0 -1,0.4477 -1,1l0,0.3785l-0.3785,0c-0.2652,0 -0.5195,0.1053 -0.7071,0.2929c-0.1875,0.1875 -0.2929,0.4419 -0.2929,0.7071l0,1.3785c0,0.2652 0.1054,0.5196 0.2929,0.7071l0.6893,0.6892c0.1097,0.1098 0.2436,0.1925 0.3909,0.2416l1.3512,0.4504l-6.735,6.7351l-0.5438,0.5438z"/>
  <path id="svg_7" fill="#333333" d="m44.2801,51.5164c0.781,-0.7811 2.0473,-0.7811 2.8284,0l1.5506,1.5507c0.7811,0.781 0.7811,2.0473 0,2.8284l-8.8642,8.8642c-0.7811,0.7811 -2.0474,0.7811 -2.8284,0l-1.5507,-1.5506c-0.7811,-0.7811 -0.7811,-2.0474 0,-2.8285l8.8643,-8.8642zm1.3415,4.4066c-0.3405,0.3405 -0.8926,0.3405 -1.2331,0c-0.3405,-0.3405 -0.3405,-0.8925 0,-1.2331c0.3405,-0.3405 0.8926,-0.3405 1.2331,0c0.3405,0.3406 0.3405,0.8926 0,1.2331zm-3.6899,2.4568c0.3406,0.3405 0.8926,0.3405 1.2331,0c0.3406,-0.3405 0.3406,-0.8926 0,-1.2331c-0.3405,-0.3405 -0.8925,-0.3405 -1.2331,0c-0.3405,0.3405 -0.3405,0.8926 0,1.2331z" clip-rule="evenodd" fill-rule="evenodd"/>
  <path id="svg_8" mask="url(#path-5-outside-1)" fill="white" d="m48.5227,50.1022c-1.5621,-1.5621 -4.0948,-1.5621 -5.6569,0l2.8285,2.8284l0,0l2.8284,-2.8284zm1.5507,1.5506l-1.5507,-1.5506l-2.8284,2.8284l1.5506,1.5507l2.8285,-2.8285zm0,5.6569c1.5621,-1.5621 1.5621,-4.0948 0,-5.6569l-2.8285,2.8285l0,0l2.8285,2.8284zm-8.8643,8.8643l8.8643,-8.8643l-2.8285,-2.8284l-8.8642,8.8642l2.8284,2.8285zm-5.6569,0c1.5621,1.562 4.0948,1.562 5.6569,0l-2.8284,-2.8285l0,0l-2.8285,2.8285zm-1.5506,-1.5507l1.5506,1.5507l2.8285,-2.8285l-1.5507,-1.5506l-2.8284,2.8284zm0,-5.6569c-1.5621,1.5621 -1.5621,4.0948 0,5.6569l2.8284,-2.8284l0,0l-2.8284,-2.8285zm8.8642,-8.8642l-8.8642,8.8642l2.8284,2.8285l8.8643,-8.8643l-2.8285,-2.8284zm0.1085,7.235c1.1215,1.1216 2.9399,1.1216 4.0615,0l-2.8284,-2.8284c0.4405,-0.4405 1.1548,-0.4405 1.5953,0l-2.8284,2.8284zm0,-4.0615c-1.1216,1.1216 -1.1216,2.94 0,4.0615l2.8284,-2.8284c0.4405,0.4406 0.4405,1.1548 0,1.5954l-2.8284,-2.8285zm4.0615,0c-1.1216,-1.1215 -2.94,-1.1215 -4.0615,0l2.8284,2.8285c-0.4405,0.4405 -1.1548,0.4405 -1.5953,0l2.8284,-2.8285zm0,4.0615c1.1215,-1.1215 1.1215,-2.9399 0,-4.0615l-2.8284,2.8285c-0.4406,-0.4406 -0.4406,-1.1548 0,-1.5954l2.8284,2.8284zm-5.2852,-0.3716c0.4406,-0.4406 1.1548,-0.4406 1.5954,0l-2.8285,2.8284c1.1216,1.1216 2.94,1.1216 4.0616,0l-2.8285,-2.8284zm0,1.5953c-0.4405,-0.4405 -0.4405,-1.1548 0,-1.5953l2.8285,2.8284c1.1215,-1.1215 1.1215,-2.94 0,-4.0615l-2.8285,2.8284zm1.5954,0c-0.4406,0.4406 -1.1548,0.4406 -1.5954,0l2.8285,-2.8284c-1.1216,-1.1216 -2.94,-1.1216 -4.0616,0l2.8285,2.8284zm0,-1.5953c0.4405,0.4405 0.4405,1.1548 0,1.5953l-2.8285,-2.8284c-1.1215,1.1215 -1.1215,2.94 0,4.0615l2.8285,-2.8284z"/>
  <path id="svg_5" stroke-linejoin="round" stroke-linecap="round" stroke-width="2" stroke="white" d="m61.66964,31.44643c0,-16.5685 -13.4315,-30 -30,-30c-16.5685,0 -30,13.4315 -30,30c0,14.865 10.8114,27.2048 25,29.5852"/>
  <g>
   <g>
    <title>Layer 1</title>
    <g stroke="null" id="svg_9">
     <g stroke="null" id="svg_11">
      <title stroke="null">Layer 1</title>
      <g stroke="null" id="svg_12">
       <g stroke="null" fill="#8247E5" id="svg_13">
        <path stroke="null" class="st0" d="m38.7527,24.5183c-0.59537,-0.34021 -1.36085,-0.34021 -2.04127,0l-4.76296,2.80675l-3.23201,1.78611l-4.67791,2.80675c-0.59537,0.34021 -1.36085,0.34021 -2.04127,0l-3.65727,-2.21138c-0.59537,-0.34021 -1.02063,-1.02063 -1.02063,-1.78611l0,-4.25265c0,-0.68042 0.34021,-1.36085 1.02063,-1.78611l3.65727,-2.12632c0.59537,-0.34021 1.36085,-0.34021 2.04127,0l3.65727,2.21138c0.59537,0.34021 1.02063,1.02063 1.02063,1.78611l0,2.80675l3.23201,-1.87116l0,-2.8918c0,-0.68042 -0.34021,-1.36085 -1.02063,-1.78611l-6.80423,-3.99749c-0.59537,-0.34021 -1.36085,-0.34021 -2.04127,0l-6.97434,4.08254c-0.68042,0.34021 -1.02063,1.02063 -1.02063,1.70106l0,7.99497c0,0.68042 0.34021,1.36085 1.02063,1.78611l6.88929,3.99749c0.59537,0.34021 1.36085,0.34021 2.04127,0l4.67791,-2.72169l3.23201,-1.87116l4.67791,-2.72169c0.59537,-0.34021 1.36085,-0.34021 2.04127,0l3.65728,2.12632c0.59537,0.34021 1.02063,1.02063 1.02063,1.78611l0,4.25265c0,0.68042 -0.34021,1.36085 -1.02063,1.78611l-3.57222,2.12632c-0.59537,0.34021 -1.36085,0.34021 -2.04127,0l-3.65727,-2.12632c-0.59537,-0.34021 -1.02064,-1.02063 -1.02064,-1.78611l0,-2.72169l-3.23201,1.87116l0,2.80675c0,0.68042 0.34021,1.36085 1.02064,1.78611l6.88929,3.99749c0.59537,0.34021 1.36085,0.34021 2.04127,0l6.88929,-3.99749c0.59537,-0.34021 1.02063,-1.02064 1.02063,-1.78611l0,-8.08003c0,-0.68042 -0.34021,-1.36085 -1.02063,-1.78611l-6.88929,-3.99749l-0.00002,-0.00002z" fill="#ffffff" id="svg_14"/>
       </g>
      </g>
     </g>
     <g id="svg_10"/>
    </g>
   </g>
  </g>
 </g>
</svg>

<svg width="67" height="70" viewBox="0 0 67 70" fill="none" xmlns="http://www.w3.org/2000/svg">
<circle cx="31" cy="31" r="30" fill="#161617"/>
<path d="M61 31C61 14.4315 47.5685 1 31 1C14.4315 1 1 14.4315 1 31C1 45.865 11.8114 58.2048 26 60.5852" stroke="white" stroke-width="2" stroke-linecap="round" stroke-linejoin="round"/>
<path d="M60.7172 48.4895V48.2659L60.9408 48.2659C61.206 48.2659 61.4604 48.1605 61.6479 47.973C61.8355 47.7854 61.9408 47.5311 61.9408 47.2659L61.9408 47.0422L62.1645 47.0422C62.4297 47.0422 62.684 46.9369 62.8716 46.7493C63.0591 46.5618 63.1645 46.3074 63.1645 46.0422L63.1645 45.8186L63.3881 45.8186C63.6533 45.8186 63.9077 45.7132 64.0952 45.5257C64.2828 45.3381 64.3881 45.0838 64.3881 44.8186L64.3881 44.0091L63.3881 44.0091L64.3881 44.0091C64.3881 43.4787 64.1774 42.97 63.8023 42.5949L63.6453 42.4379C63.263 42.0556 62.7654 41.8645 62.2814 41.835C61.9096 41.8123 61.3207 41.7496 60.7223 41.5834C60.1101 41.4133 59.583 41.1609 59.2432 40.821C58.2114 39.7893 58.1575 38.3262 58.1575 37.3927C58.1575 37.1274 58.0522 36.8731 57.8647 36.6856L57.1754 35.9963C57.0656 35.8865 56.9318 35.8038 56.7845 35.7547L55.7507 35.4101C55.4457 35.3085 55.1105 35.3596 54.8497 35.5475C54.5889 35.7355 54.4344 36.0373 54.4344 36.3588V36.7373L54.0559 36.7373C53.5036 36.7373 53.0559 37.185 53.0559 37.7373L53.0559 38.1158L52.6774 38.1158C52.1251 38.1158 51.6774 38.5635 51.6774 39.1158L51.6774 39.4943L51.2989 39.4943C51.0337 39.4943 50.7794 39.5996 50.5918 39.7872C50.4043 39.9747 50.2989 40.2291 50.2989 40.4943L50.2989 41.8728C50.2989 42.138 50.4043 42.3924 50.5918 42.5799L51.2811 43.2691C51.3908 43.3789 51.5247 43.4616 51.672 43.5107L53.0232 43.9611L46.2882 50.6962L45.7444 51.24C45.3539 51.6305 45.3539 52.2637 45.7444 52.6542L47.5213 54.4312C47.9118 54.8217 48.545 54.8217 48.9355 54.4312L49.4794 53.8873L56.1832 47.1835L56.5307 48.0997C56.631 48.3642 56.7864 48.6045 56.9865 48.8046L57.5825 49.4006C57.805 49.6231 58.1194 49.7279 58.431 49.6834L59.8586 49.4795C60.3512 49.4091 60.7172 48.9872 60.7172 48.4895Z" fill="#2F3350" stroke="white" stroke-width="2" stroke-linecap="round" stroke-linejoin="round"/>
<mask id="path-4-outside-1" maskUnits="userSpaceOnUse" x="30.845" y="47.2737" width="22.6274" height="22.6274" fill="black">
<rect fill="white" x="30.845" y="47.2737" width="22.6274" height="22.6274"/>
<path fill-rule="evenodd" clip-rule="evenodd" d="M44.2801 51.5164C45.0611 50.7353 46.3274 50.7353 47.1085 51.5164L48.6592 53.0671C49.4402 53.8481 49.4402 55.1144 48.6592 55.8955L39.7949 64.7597C39.0138 65.5408 37.7475 65.5408 36.9665 64.7597L35.4158 63.2091C34.6348 62.428 34.6348 61.1617 35.4158 60.3806L44.2801 51.5164ZM45.6216 55.923C45.2811 56.2635 44.729 56.2635 44.3885 55.923C44.048 55.5825 44.048 55.0305 44.3885 54.6899C44.729 54.3494 45.2811 54.3494 45.6216 54.6899C45.9621 55.0305 45.9621 55.5825 45.6216 55.923ZM41.9318 58.3798C42.2723 58.7203 42.8243 58.7203 43.1648 58.3798C43.5054 58.0393 43.5054 57.4872 43.1648 57.1467C42.8243 56.8062 42.2723 56.8062 41.9318 57.1467C41.5912 57.4872 41.5912 58.0393 41.9318 58.3798Z"/>
</mask>
<path fill-rule="evenodd" clip-rule="evenodd" d="M44.2801 51.5164C45.0611 50.7353 46.3274 50.7353 47.1085 51.5164L48.6592 53.0671C49.4402 53.8481 49.4402 55.1144 48.6592 55.8955L39.7949 64.7597C39.0138 65.5408 37.7475 65.5408 36.9665 64.7597L35.4158 63.2091C34.6348 62.428 34.6348 61.1617 35.4158 60.3806L44.2801 51.5164ZM45.6216 55.923C45.2811 56.2635 44.729 56.2635 44.3885 55.923C44.048 55.5825 44.048 55.0305 44.3885 54.6899C44.729 54.3494 45.2811 54.3494 45.6216 54.6899C45.9621 55.0305 45.9621 55.5825 45.6216 55.923ZM41.9318 58.3798C42.2723 58.7203 42.8243 58.7203 43.1648 58.3798C43.5054 58.0393 43.5054 57.4872 43.1648 57.1467C42.8243 56.8062 42.2723 56.8062 41.9318 57.1467C41.5912 57.4872 41.5912 58.0393 41.9318 58.3798Z" fill="#333333"/>
<path d="M44.2801 51.5164L45.6943 52.9306L44.2801 51.5164ZM48.6592 55.8955L50.0734 57.3097L48.6592 55.8955ZM39.7949 64.7597L38.3807 63.3455L39.7949 64.7597ZM35.4158 60.3806L34.0016 58.9664L35.4158 60.3806ZM48.5227 50.1022C46.9606 48.5401 44.4279 48.5401 42.8658 50.1022L45.6943 52.9306L45.6943 52.9306L48.5227 50.1022ZM50.0734 51.6528L48.5227 50.1022L45.6943 52.9306L47.2449 54.4813L50.0734 51.6528ZM50.0734 57.3097C51.6355 55.7476 51.6355 53.2149 50.0734 51.6528L47.2449 54.4813L47.2449 54.4813L50.0734 57.3097ZM41.2091 66.174L50.0734 57.3097L47.2449 54.4813L38.3807 63.3455L41.2091 66.174ZM35.5523 66.174C37.1144 67.736 39.647 67.736 41.2091 66.174L38.3807 63.3455L38.3807 63.3455L35.5523 66.174ZM34.0016 64.6233L35.5523 66.174L38.3807 63.3455L36.83 61.7949L34.0016 64.6233ZM34.0016 58.9664C32.4395 60.5285 32.4395 63.0612 34.0016 64.6233L36.83 61.7949L36.83 61.7949L34.0016 58.9664ZM42.8658 50.1022L34.0016 58.9664L36.83 61.7949L45.6943 52.9306L42.8658 50.1022ZM42.9743 57.3372C44.0958 58.4588 45.9142 58.4588 47.0358 57.3372L44.2074 54.5088C44.6479 54.0683 45.3622 54.0683 45.8027 54.5088L42.9743 57.3372ZM42.9743 53.2757C41.8527 54.3973 41.8527 56.2157 42.9743 57.3372L45.8027 54.5088C46.2432 54.9494 46.2432 55.6636 45.8027 56.1042L42.9743 53.2757ZM47.0358 53.2757C45.9142 52.1542 44.0958 52.1542 42.9743 53.2757L45.8027 56.1042C45.3622 56.5447 44.6479 56.5447 44.2074 56.1042L47.0358 53.2757ZM47.0358 57.3372C48.1574 56.2157 48.1574 54.3973 47.0358 53.2757L44.2074 56.1042C43.7668 55.6636 43.7668 54.9494 44.2074 54.5088L47.0358 57.3372ZM41.7506 56.9656C42.1912 56.525 42.9054 56.525 43.346 56.9656L40.5175 59.794C41.6391 60.9156 43.4575 60.9156 44.5791 59.794L41.7506 56.9656ZM41.7506 58.5609C41.3101 58.1204 41.3101 57.4061 41.7506 56.9656L44.5791 59.794C45.7006 58.6725 45.7006 56.8541 44.5791 55.7325L41.7506 58.5609ZM43.346 58.5609C42.9054 59.0015 42.1912 59.0015 41.7506 58.5609L44.5791 55.7325C43.4575 54.6109 41.6391 54.6109 40.5175 55.7325L43.346 58.5609ZM43.346 56.9656C43.7865 57.4061 43.7865 58.1204 43.346 58.5609L40.5175 55.7325C39.396 56.8541 39.396 58.6725 40.5175 59.794L43.346 56.9656Z" fill="white" mask="url(#path-4-outside-1)"/>
<g clip-path="url(#clip0)">
<path d="M38.901 25.9164C38.3724 25.6059 37.6927 25.6059 37.0885 25.9164L32.8594 28.4776L29.9896 30.1074L25.8359 32.6686C25.3073 32.9791 24.6276 32.9791 24.0234 32.6686L20.776 30.6507C20.2474 30.3403 19.8698 29.7194 19.8698 29.0209V25.1403C19.8698 24.5194 20.1719 23.8985 20.776 23.5104L24.0234 21.5701C24.5521 21.2597 25.2318 21.2597 25.8359 21.5701L29.0833 23.588C29.612 23.8985 29.9896 24.5194 29.9896 25.2179V27.7791L32.8594 26.0716V23.4328C32.8594 22.8119 32.5573 22.191 31.9531 21.803L25.9115 18.1552C25.3828 17.8448 24.7031 17.8448 24.099 18.1552L17.9062 21.8806C17.3021 22.191 17 22.8119 17 23.4328V30.7283C17 31.3492 17.3021 31.9701 17.9062 32.3582L24.0234 36.0059C24.5521 36.3164 25.2318 36.3164 25.8359 36.0059L29.9896 33.5224L32.8594 31.8149L37.013 29.3313C37.5417 29.0209 38.2214 29.0209 38.8255 29.3313L42.0729 31.2716C42.6016 31.5821 42.9792 32.203 42.9792 32.9015V36.7821C42.9792 37.403 42.6771 38.0239 42.0729 38.4119L38.901 40.3522C38.3724 40.6627 37.6927 40.6627 37.0885 40.3522L33.8411 38.4119C33.3125 38.1015 32.9349 37.4806 32.9349 36.7821V34.2985L30.0651 36.0059V38.5671C30.0651 39.188 30.3672 39.8089 30.9714 40.197L37.0885 43.8447C37.6172 44.1552 38.2969 44.1552 38.901 43.8447L45.0182 40.197C45.5469 39.8865 45.9245 39.2656 45.9245 38.5671V31.194C45.9245 30.5731 45.6224 29.9522 45.0182 29.5642L38.901 25.9164Z" fill="white"/>
</g>
<defs>
<clipPath id="clip0">
<rect width="29" height="26" fill="white" transform="translate(17 18)"/>
</clipPath>
</defs>
</svg>
